X:1
T:Karl den Tolvte
T:Karl den Tolvte
T:E. Tegnér
T:Bernhard Crusell
C:Bernhard Crusell
%%score [ 1 2 3 ]
L:1/8
Q:1/4=114
M:4/4
K:Ab
V:1 treble-8 nm="T1"
V:2 treble-8 nm="T2"
V:3 bass nm="B"
V:1
"^Allegro moderato"!f! E2 | c3 c d3 B | (Ac) E2 z e c A | E6 G2 | A4 z2!f! E2 | c3 c d3 d | %6
w: 1.Kung|Karl, den un- ga|hjel- * te, han stod i|rök och|dam; han|drog sitt svärd från|
w: 2.Der|slog så stort ett|hjer- * ta ut- i hans|sven- ska|barm, i|gläd- je som i|
w: 3.Se,|nat- tens sjer- nor|blos- * sa på graf- ven|län- ga-|sen, och|hun- dra- å- rig|
 c2 B2 z2 B2 | B3 B =d3 d | e4 z2!p! E2 | .B2 .d2 .c2 .e2 | (ec) A2 z2!f! c2 | d2 c2 B2 f2 | %12
w: bäl- te och|bröt i stri- den|fram. "Hur|sven- ska stå- let|bi- * ter, kom|låt oss pröf- va|
w: smär- ta blott|för det rät- ta|varm. I|med\- och mot- gång|li- * ka, sin|lyc- kas öf- ver-|
w: mos- sa be-|täc- ker hjel- tens|ben. Det|herr- li- ga på|jor- * den, for-|gäng- lig är dess|
 e4 z2 E2 | A4- A3/2 C/ D3/2 E/ | F2 D2 z2 F2 | d4- d3/2 c/ B3/2 A/ | G2 E2 z4 |!p! e4 c3 d | %18
w: på! ur|vä- * gen, Mo- sko-|vi- ter! ur|vä- * gen, Mo- sko-|vi- ter!|friskt mod, I|
w: man; han|kun- * de ik- ke|vi- ka, han|kun- * de ik- ke|vi- ka,|blott fal- la|
w: lott! Hans|min- * ne ut- i|Nor- den \-hans|min- * ne ut- i|Nor- den|är snart en|
 e2 f2 e3 d | c3 d c2 B2 | A4 z4 |!f! e4 c3 d | e2 f2 e3 d | c3 d c2 B2 | A4 z2 |] %25
w: gos- sar blå! friskt|mod, I gos- sar|blå!|friskt mod, I|gos- sar blå! friskt|mod, I gos- sar|blå!"|
w: kun- de han, blott|fal- la kun- de|han.|blott fal- la|kun- de han, blott|fal- la kun- de|han.|
w: sa- ga blott, är|snart en sa- ga|blott.|är snart en|sa- ga blott, är|snart en sa- ga|blott.|
V:2
!f! E2 | E3 E G3 G | A2 E2 z4 | z c B A (GF) (ED) | C4 z2!f! E2 | E3 A A3 A | A2 A2 z2 A2 | %7
w: 1.Kung|Karl, den un- ga|hjel- te,|han stod i rök _ och _|dam; han|drog sitt svärd från|bäl- te och|
w: 2.Der|slog så stort ett|hjer- ta|ut- i hans sven- * ska _|barm, i|gläd- je som i|smär- ta blott|
w: 3.Se,|nat- tens sjer- nor|blos- sa|på graf- ven län- * ga- *|sen, och|hun- dra- å- rig|mos- sa be-|
 G3 G A3 A | G4 z2!p! E2 | .G2 .B2 .A2 .G2 | A2 A2 z2!f! A2 | G2 A2 F2 A2 | G4 z4 | %13
w: bröt i stri- den|fram. "Hur|sven- ska stå- let|bi- ter, kom|låt oss pröf- va|på!|
w: för det rät- ta|varm. I|med\- och mot- gång|li- ka, sin|lyc- kas öf- ver-|man;|
w: täc- ker hjel- tens|ben. Det|herr- li- ga på|jor- den, for-|gäng- lig är dess|lott!|
 z2 z A A3/2 A/ A3/2 A/ | A2 F2 z4 | z4 z2 z z/ =d/ | e2 E2 z4 |!p! c4 A3 B | c2 d2 c3 B | %19
w: ur vä- gen, Mo- sko-|vi- ter!|ur|vä- gen!|friskt mod, I|gos- sar blå! friskt|
w: han kun- de ik- ke|vi- ka,|un|vä- gen!|blott fal- la|kun- de han, blott|
w: hans min- ne ut- i|Nor- den|hans|min- ne|är snart en|sa- ga blott, är|
 A3 B A2 G2 | A4 z4 |!f! c4 A3 B | c2 d2 c3 B | A3 B A2 G2 | A4 z2 |] %25
w: mod, I gos- sar|blå!|friskt mod, I|gos- sar blå! friskt|mod, I gos- sar|blå!"|
w: fal- la kun- de|han.|blott fal- la|kun- de han, blott|fal- la kun- de|han.|
w: snart en sa- ga|blott.|är snart en|sa- ga blott, är|snart en sa- ga|blott.|
V:3
!f! E,2 | C3 C D3 B, | (A,C) E,2 z4 | z2 z C, E, D, C, B,, | A,,4 z2!f! E,2 | A,,3 A, F,3 F, | %6
w: 1.Kung|Karl, den un- ga|hjel- * te,|han stod i rök och|dam; han|drog sitt svärd från|
w: 2.Der|slog så stort ett|hjer- * ta|ut- i hans sven- ska|barm, i|gläd- je som i|
w: 3.Se,|nat- tens sjer- nor|blos- * sa|på graf- ven län- ga-|sen, och|hun- dra- å- rig|
 E,2 =D,2 z2 D,2 | E,3 E, B,,3 B,, | E,4 z2!p! E,2 | .E,2 .E,2 .E,2 .D,2 | C,2 F,2 z2!f! F,2 | %11
w: bäl- te och|bröt i stri- den|fram. "Hur|sven- ska stå- let|bi- ter, kom|
w: smär- ta blott|för det rät- ta|varm. I|med\- och mot- gång|li- ka, sin|
w: mos- sa be-|täc- ker hjel- tens|ben. Det|herr- li- ga på|jor- den, for-|
 =E,2 F,2 D,2 =D,2 | E,4 z4 | z2 z A,, A,3/2 _G,/ F,3/2 E,/ | D,2 D,2 z4 | %15
w: låt oss pröf- va|på!|ur vä- gen, Mo- sko-|vi- ter!|
w: lyc- kas öf- ver-|man;|han kun- de ik- ke|vi- ka,|
w: gäng- lig är dess|lott!|hans min- ne ut- i|Nor- den|
 z2 z B,, B,3/2 A,/ =G,3/2 F,/ | E,2 E,2 z4 |!p! A,4 A,3 A, | A,2 A,2 A,3 E, | F,3 D, E,2 E,2 | %20
w: ur vä- gen, Mo- sko-|vi- ter!|friskt mod, I|gos- sar blå! friskt|mod, I gos- sar|
w: han kun- de ik- ke|vi- ka,|blott fal- la|kun- de han, blott|fal- la kun- de|
w: hans min- ne ut- i|Nor- den|är snart en|sa- ga blott, är|snart en sa- ga|
 A,,4 z4 |!f! A,4 A,3 A, | A,2 A,2 A,3 E, | F,3 D, E,2 E,2 | A,,4 z2 |] %25
w: blå!|friskt mod, I|gos- sar blå! friskt|mod, I gos- sar|blå!"|
w: han.|blott fal- la|kun- de han, blott|fal- la kun- de|han.|
w: blott.|är snart en|sa- ga blott, är|snart en sa- ga|blott.|

